src/assets/duotone/Element4.svg

<?xml version="1.0" encoding="UTF-8"?>
<svg width="24" height="24" viewBox="0 0 24 24" xmlns="http://www.w3.org/2000/svg">
 <path d="m21.5 10.9v-6.8c0-1.5-0.64-2.1-2.23-2.1h-4.04c-1.59 0-2.23 0.6-2.23 2.1v6.8c0 1.5 0.64 2.1 2.23 2.1h4.04c1.59 0 2.23-0.6 2.23-2.1z"/>
 <path d="m11 13.1v6.8c0 1.5-0.64 2.1-2.23 2.1h-4.04c-1.59 0-2.23-0.6-2.23-2.1v-6.8c0-1.5 0.64-2.1 2.23-2.1h4.04c1.59 0 2.23 0.6 2.23 2.1z"/>
 <path d="m21.5 19.9v-2.8c0-1.5-0.64-2.1-2.23-2.1h-4.04c-1.59 0-2.23 0.6-2.23 2.1v2.8c0 1.5 0.64 2.1 2.23 2.1h4.04c1.59 0 2.23-0.6 2.23-2.1z" opacity=".4"/>
 <path d="M11 6.9V4.1C11 2.6 10.36 2 8.77 2H4.73C3.14 2 2.5 2.6 2.5 4.1V6.9C2.5 8.4 3.14 9 4.73 9H8.77C10.36 9 11 8.4 11 6.9Z" opacity=".4"/>
</svg>

<svg width="24" height="24" viewBox="0 0 24 24"  xmlns="http://www.w3.org/2000/svg">
<path d="M21.5 10.9V4.1C21.5 2.6 20.86 2 19.27 2H15.23C13.64 2 13 2.6 13 4.1V10.9C13 12.4 13.64 13 15.23 13H19.27C20.86 13 21.5 12.4 21.5 10.9Z" />
<path d="M11 13.1V19.9C11 21.4 10.36 22 8.77 22H4.73C3.14 22 2.5 21.4 2.5 19.9V13.1C2.5 11.6 3.14 11 4.73 11H8.77C10.36 11 11 11.6 11 13.1Z" />
<path opacity="0.4" d="M21.5 19.9V17.1C21.5 15.6 20.86 15 19.27 15H15.23C13.64 15 13 15.6 13 17.1V19.9C13 21.4 13.64 22 15.23 22H19.27C20.86 22 21.5 21.4 21.5 19.9Z" />
<path opacity="0.4" d="M11 6.9V4.1C11 2.6 10.36 2 8.77 2H4.73C3.14 2 2.5 2.6 2.5 4.1V6.9C2.5 8.4 3.14 9 4.73 9H8.77C10.36 9 11 8.4 11 6.9Z" />
</svg>
